Adwaita++/mimetypes/16/gdtable.svg

<svg height="16" viewBox="0 0 16 16" width="16" xmlns="http://www.w3.org/2000/svg">
  <path d="m13.39117 2.2052049-.137026.1743966-2.813481 3.5733512-1.4877098-1.8026916-3.3188746 4.2922924-1.4716939-1.6834612-4.1623847 5.1945287 1.2741631.654877 2.9398288-3.6658889 1.491269 1.7048159 3.2868425-4.2495829 1.4770326 1.7902347 3.204983-4.0734069 1.097987 1.1887444 1.227895-.727839-2.187076-2.3703704zm-.80258 3.7904572v.4555667 6.5487712h2.434434v-7.0043379zm-3.0466033 2.2849516v.4555667 4.2638196h2.4344353v-4.7193863zm-3.0466022 1.9041263v.455567 2.359693h2.4344344v-2.81526z" fill="#444" fill-rule="evenodd"/>
</svg>

<?xml version="1.0" encoding="UTF-8" standalone="no"?>
<svg
   xmlns:dc="http://purl.org/dc/elements/1.1/"
   xmlns:cc="http://creativecommons.org/ns#"
   xmlns:rdf="http://www.w3.org/1999/02/22-rdf-syntax-ns#"
   xmlns:svg="http://www.w3.org/2000/svg"
   xmlns="http://www.w3.org/2000/svg"
   xmlns:sodipodi="http://sodipodi.sourceforge.net/DTD/sodipodi-0.dtd"
   xmlns:inkscape="http://www.inkscape.org/namespaces/inkscape"
   style="isolation:isolate"
   width="16"
   height="16"
   viewBox="0 0 16 16"
   version="1.1"
   id="svg65"
   sodipodi:docname="gdtable.svg"
   inkscape:version="0.92.4 (5da689c313, 2019-01-14)">
  <metadata
     id="metadata69">
    <rdf:RDF>
      <cc:Work
         rdf:about="">
        <dc:format>image/svg+xml</dc:format>
        <dc:type
           rdf:resource="http://purl.org/dc/dcmitype/StillImage" />
      </cc:Work>
    </rdf:RDF>
  </metadata>
  <sodipodi:namedview
     pagecolor="#ffffff"
     bordercolor="#666666"
     borderopacity="1"
     objecttolerance="10"
     gridtolerance="10"
     guidetolerance="10"
     inkscape:pageopacity="0"
     inkscape:pageshadow="2"
     inkscape:window-width="1920"
     inkscape:window-height="1016"
     id="namedview67"
     showgrid="false"
     inkscape:zoom="14.75"
     inkscape:cx="8"
     inkscape:cy="8"
     inkscape:window-x="0"
     inkscape:window-y="27"
     inkscape:window-maximized="1"
     inkscape:current-layer="svg65" />
  <defs
     id="defs61">
    <style
       id="current-color-scheme"
       type="text/css">
   .ColorScheme-Text { color:#474747; } .ColorScheme-Highlight { color:#5294e2; }
  </style>
    <linearGradient
       id="arrongin"
       x1="0%"
       x2="0%"
       y1="0%"
       y2="100%">
      <stop
         offset="0%"
         style="stop-color:#dd9b44"
         id="stop3" />
      <stop
         offset="100%"
         style="stop-color:#ad6c16"
         id="stop5" />
    </linearGradient>
    <linearGradient
       id="aurora"
       x1="0%"
       x2="0%"
       y1="0%"
       y2="100%">
      <stop
         offset="0%"
         style="stop-color:#09D4DF"
         id="stop8" />
      <stop
         offset="100%"
         style="stop-color:#9269F4"
         id="stop10" />
    </linearGradient>
    <linearGradient
       id="fitdance"
       x1="0%"
       x2="0%"
       y1="0%"
       y2="100%">
      <stop
         offset="0%"
         style="stop-color:#1AD6AB"
         id="stop13" />
      <stop
         offset="100%"
         style="stop-color:#329DB6"
         id="stop15" />
    </linearGradient>
    <linearGradient
       id="oomox"
       x1="0%"
       x2="0%"
       y1="0%"
       y2="100%">
      <stop
         offset="0%"
         style="stop-color:#efefe7"
         id="stop18" />
      <stop
         offset="100%"
         style="stop-color:#8f8f8b"
         id="stop20" />
    </linearGradient>
    <linearGradient
       id="rainblue"
       x1="0%"
       x2="0%"
       y1="0%"
       y2="100%">
      <stop
         offset="0%"
         style="stop-color:#00F260"
         id="stop23" />
      <stop
         offset="100%"
         style="stop-color:#0575E6"
         id="stop25" />
    </linearGradient>
    <linearGradient
       id="sunrise"
       x1="0%"
       x2="0%"
       y1="0%"
       y2="100%">
      <stop
         offset="0%"
         style="stop-color:#FF8501"
         id="stop28" />
      <stop
         offset="100%"
         style="stop-color:#FFCB01"
         id="stop30" />
    </linearGradient>
    <linearGradient
       id="telinkrin"
       x1="0%"
       x2="0%"
       y1="0%"
       y2="100%">
      <stop
         offset="0%"
         style="stop-color:#b2ced6"
         id="stop33" />
      <stop
         offset="100%"
         style="stop-color:#6da5b7"
         id="stop35" />
    </linearGradient>
    <linearGradient
       id="60spsycho"
       x1="0%"
       x2="0%"
       y1="0%"
       y2="100%">
      <stop
         offset="0%"
         style="stop-color:#df5940"
         id="stop38" />
      <stop
         offset="25%"
         style="stop-color:#d8d15f"
         id="stop40" />
      <stop
         offset="50%"
         style="stop-color:#e9882a"
         id="stop42" />
      <stop
         offset="100%"
         style="stop-color:#279362"
         id="stop44" />
    </linearGradient>
    <linearGradient
       id="90ssummer"
       x1="0%"
       x2="0%"
       y1="0%"
       y2="100%">
      <stop
         offset="0%"
         style="stop-color:#f618c7"
         id="stop47" />
      <stop
         offset="20%"
         style="stop-color:#94ffab"
         id="stop49" />
      <stop
         offset="50%"
         style="stop-color:#fbfd54"
         id="stop51" />
      <stop
         offset="100%"
         style="stop-color:#0f83ae"
         id="stop53" />
    </linearGradient>
    <linearGradient
       id="cyberneon"
       x1="0%"
       x2="0%"
       y1="0%"
       y2="100%">
      <stop
         offset="0"
         style="stop-color:#0abdc6"
         id="stop56" />
      <stop
         offset="1"
         style="stop-color:#ea00d9"
         id="stop58" />
    </linearGradient>
  </defs>
  <path
     style="color:#474747;font-style:normal;font-variant:normal;font-weight:normal;font-stretch:normal;font-size:medium;line-height:normal;font-family:sans-serif;font-variant-ligatures:normal;font-variant-position:normal;font-variant-caps:normal;font-variant-numeric:normal;font-variant-alternates:normal;font-feature-settings:normal;text-indent:0;text-align:start;text-decoration:none;text-decoration-line:none;text-decoration-style:solid;text-decoration-color:#000000;letter-spacing:normal;word-spacing:normal;text-transform:none;writing-mode:lr-tb;direction:ltr;text-orientation:mixed;dominant-baseline:auto;baseline-shift:baseline;text-anchor:start;white-space:normal;shape-padding:0;clip-rule:nonzero;display:inline;overflow:visible;visibility:visible;opacity:1;isolation:auto;mix-blend-mode:normal;color-interpolation:sRGB;color-interpolation-filters:linearRGB;solid-color:#000000;solid-opacity:1;vector-effect:none;fill:#444444;fill-opacity:1;fill-rule:evenodd;stroke:none;stroke-width:0.91113335;stroke-linecap:butt;stroke-linejoin:miter;stroke-miterlimit:4;stroke-dasharray:none;stroke-dashoffset:0;stroke-opacity:1;color-rendering:auto;image-rendering:auto;shape-rendering:auto;text-rendering:auto;enable-background:accumulate"
     d="M 13.39117,2.2052049 13.254144,2.3796015 10.440663,5.9529527 8.9529532,4.1502611 5.6340786,8.4425535 4.1623847,6.7590923 0,11.953621 1.2741631,12.608498 4.2139919,8.9426091 5.7052609,10.647425 8.9921034,6.3978421 10.469136,8.1880768 13.674119,4.1146699 14.772106,5.3034143 16.000001,4.5755753 13.812925,2.2052049 Z M 12.58859,5.9956621 V 6.4512288 13 h 2.434434 V 5.9956621 Z M 9.5419867,8.2806137 V 8.7361804 13 H 11.976422 V 8.2806137 Z M 6.4953845,10.18474 V 10.640307 13 h 2.4344344 v -2.81526 z"
     id="path63"
     inkscape:connector-curvature="0"
     sodipodi:nodetypes="ccccccccccccccccccccccccccccccccccc" />
</svg>
